X:1
T:Great-Grandad
M:2/4
L:1/8
K:D
 AF B A/2A/2| FA D2| EF G E/2E/2| FA A A/2A/2| FA A A/2A/2| GB B B/2B/2|\
 FA A F/2F/2| ED D2|
